app/assets/images/icons/schedule-your-move-dark.svg

<?xml version="1.0" encoding="UTF-8"?>
<svg width="83px" height="93px" viewBox="0 0 83 93" version="1.1" xmlns="http://www.w3.org/2000/svg" xmlns:xlink="http://www.w3.org/1999/xlink">
    <!-- Generator: Sketch 47 (45396) - http://www.bohemiancoding.com/sketch -->
    <title>Index_schedule_icon</title>
    <desc>Created with Sketch.</desc>
    <defs>
        <polygon id="path-1" points="0.0488372093 77.6046512 70 77.6046512 70 0.0330232558 0.0488372093 0.0330232558"></polygon>
    </defs>
    <g id="Move.mil-Index" stroke="none" stroke-width="1" fill="none" fill-rule="evenodd">
        <g id="Index_Desktop" transform="translate(-117.000000, -1006.000000)">
            <g id="Main-Content" transform="translate(124.000000, 758.000000)">
                <g id="Schedule" transform="translate(0.000000, 256.000000)">
                    <g id="noun_1219134">
                        <g id="Group-3">
                            <mask id="mask-2" fill="white">
                                <use xlink:href="#path-1"></use>
                            </mask>
                            <g id="Clip-2"></g>
                            <path d="M65.1162791,28.8953488 L65.1162791,68.5232558 C65.1162791,70.8035116 63.2946512,72.6511628 61.0465116,72.6511628 L8.95348837,72.6511628 C6.70616279,72.6511628 4.88372093,70.8035116 4.88372093,68.5232558 L4.88372093,18.1627907 C4.88372093,15.8833605 6.70616279,14.0348837 8.95348837,14.0348837 L9.76744186,14.0348837 L9.76744186,16.5116279 C9.76744186,17.8796163 10.8605814,18.9883721 12.2093023,18.9883721 L21.9767442,18.9883721 C23.3254651,18.9883721 24.4186047,17.8796163 24.4186047,16.5116279 L24.4186047,14.0348837 L46.3953488,14.0348837 L46.3953488,16.5116279 C46.3953488,17.8796163 47.4884884,18.9883721 48.8372093,18.9883721 L58.6046512,18.9883721 C59.9533721,18.9883721 61.0465116,17.8796163 61.0465116,16.5116279 L61.0465116,14.0348837 C63.2946512,14.0348837 65.1162791,15.8833605 65.1162791,18.1627907 L65.1162791,28.8953488 Z M14.6511628,7.43023256 C14.6511628,6.06224419 15.7443023,4.95348837 17.0930233,4.95348837 C18.4417442,4.95348837 19.5348837,6.06224419 19.5348837,7.43023256 L19.5348837,14.0348837 L14.6511628,14.0348837 L14.6511628,7.43023256 Z M51.2790698,7.43023256 C51.2790698,6.06224419 52.3722093,4.95348837 53.7209302,4.95348837 C55.0696512,4.95348837 56.1627907,6.06224419 56.1627907,7.43023256 L56.1627907,14.0348837 L51.2790698,14.0348837 L51.2790698,7.43023256 Z M61.0465116,9.08139535 L61.0465116,7.43023256 C61.0465116,3.32626744 57.767093,0 53.7209302,0 C49.6747674,0 46.3953488,3.32626744 46.3953488,7.43023256 L46.3953488,9.08139535 L24.4186047,9.08139535 L24.4186047,7.43023256 C24.4186047,3.32626744 21.139186,0 17.0930233,0 C13.0468605,0 9.76744186,3.32626744 9.76744186,7.43023256 L9.76744186,9.08139535 L8.95348837,9.08139535 C4.00872093,9.08139535 0,13.1473837 0,18.1627907 L0,68.5232558 C0,73.5386628 4.00872093,77.6046512 8.95348837,77.6046512 L61.0465116,77.6046512 C65.9912791,77.6046512 70,73.5386628 70,68.5232558 L70,18.1627907 C70,13.1473837 65.9912791,9.08139535 61.0465116,9.08139535 L61.0465116,9.08139535 Z" id="Fill-1" fill="#205493" mask="url(#mask-2)"></path>
                        </g>
                        <polygon id="Fill-4" fill="#205493" points="19 34 24 34 24 29 19 29"></polygon>
                        <polygon id="Fill-5" fill="#205493" points="10 34 15 34 15 29 10 29"></polygon>
                        <polygon id="Fill-6" fill="#205493" points="46 34 51 34 51 29 46 29"></polygon>
                        <polygon id="Fill-7" fill="#205493" points="37 34 42 34 42 29 37 29"></polygon>
                        <polygon id="Fill-8" fill="#205493" points="56 34 61 34 61 29 56 29"></polygon>
                        <polygon id="Fill-9" fill="#205493" points="28 34 33 34 33 29 28 29"></polygon>
                        <path d="M28.8030029,44.6463125 L18.920115,54.1874035 L13.1966918,48.6619232 C12.1884376,47.7543952 10.6086729,47.8082044 9.66946582,48.7815884 C8.77684473,49.7075882 8.77684473,51.1419644 9.66946582,52.0671611 L17.1565021,59.2952603 C18.1306487,60.2349132 19.7095814,60.2349132 20.683728,59.2952603 L32.3302288,48.0515504 C33.2694359,47.0781664 33.214531,45.5538406 32.2054449,44.6463125 C31.2471043,43.7845625 29.7613435,43.7845625 28.8030029,44.6463125" id="Fill-10" fill="#205493"></path>
                        <path d="M57.5357143,47 L39.4642857,47 C38.1031786,47 37,48.1191667 37,49.5 C37,50.8808333 38.1031786,52 39.4642857,52 L57.5357143,52 C58.8968214,52 60,50.8808333 60,49.5 C60,48.1191667 58.8968214,47 57.5357143,47" id="Fill-11" fill="#205493"></path>
                        <path d="M57.5357143,58 L39.4642857,58 C38.1031786,58 37,59.1191667 37,60.5 C37,61.8808333 38.1031786,63 39.4642857,63 L57.5357143,63 C58.8968214,63 60,61.8808333 60,60.5 C60,59.1191667 58.8968214,58 57.5357143,58" id="Fill-12" fill="#205493"></path>
                    </g>
                </g>
            </g>
        </g>
    </g>
</svg>

<svg width="83" height="93" viewBox="0 0 83 93" xmlns="http://www.w3.org/2000/svg" xmlns:xlink="http://www.w3.org/1999/xlink"><title>Index_schedule_icon</title><defs><path id="a" d="M.049 77.605H70V.033H.049z"/></defs><g fill="none" fill-rule="evenodd"><g transform="translate(7 8)"><mask id="b" fill="#fff"><use xlink:href="#a"/></mask><path d="M65.116 28.895v39.628c0 2.28-1.821 4.128-4.07 4.128H8.954c-2.247 0-4.07-1.847-4.07-4.128v-50.36c0-2.28 1.823-4.128 4.07-4.128h.814v2.477c0 1.368 1.094 2.476 2.442 2.476h9.768c1.348 0 2.442-1.108 2.442-2.476v-2.477h21.976v2.477c0 1.368 1.093 2.476 2.442 2.476h9.768c1.348 0 2.442-1.108 2.442-2.476v-2.477c2.248 0 4.07 1.848 4.07 4.128v10.732zM14.651 7.43c0-1.368 1.093-2.477 2.442-2.477 1.349 0 2.442 1.11 2.442 2.477v6.605H14.65V7.43zm36.628 0c0-1.368 1.093-2.477 2.442-2.477 1.349 0 2.442 1.11 2.442 2.477v6.605h-4.884V7.43zm9.768 1.651v-1.65C61.047 3.325 57.767 0 53.72 0c-4.046 0-7.326 3.326-7.326 7.43v1.651H24.42v-1.65c0-4.105-3.28-7.431-7.326-7.431-4.046 0-7.326 3.326-7.326 7.43v1.651h-.814C4.01 9.081 0 13.147 0 18.163v50.36c0 5.016 4.009 9.082 8.953 9.082h52.094c4.944 0 8.953-4.066 8.953-9.082v-50.36c0-5.016-4.009-9.082-8.953-9.082z" fill="#205493" mask="url(#b)"/></g><path fill="#205493" d="M26 42h5v-5h-5zM17 42h5v-5h-5zM53 42h5v-5h-5zM44 42h5v-5h-5zM63 42h5v-5h-5zM35 42h5v-5h-5zM35.803 52.646l-9.883 9.541-5.723-5.525a2.559 2.559 0 0 0-3.528.12 2.35 2.35 0 0 0 0 3.285l7.488 7.228a2.56 2.56 0 0 0 3.527 0L39.33 56.052a2.35 2.35 0 0 0-.125-3.406 2.562 2.562 0 0 0-3.402 0M64.536 55H46.464C45.104 55 44 56.12 44 57.5s1.103 2.5 2.464 2.5h18.072C65.896 60 67 58.88 67 57.5S65.897 55 64.536 55M64.536 66H46.464C45.104 66 44 67.12 44 68.5s1.103 2.5 2.464 2.5h18.072C65.896 71 67 69.88 67 68.5S65.897 66 64.536 66"/></g></svg>
